symbols/web/do_not_disturb_on_total_silence/materialsymbolsrounded/do_not_disturb_on_total_silence_wght700grad200fill1_48px.svg

<svg xmlns="http://www.w3.org/2000/svg" height="48" width="48"><path d="M24 45.05q-4.35 0-8.2-1.65-3.85-1.65-6.725-4.5-2.875-2.85-4.5-6.725Q2.95 28.3 2.95 24q0-4.3 1.625-8.175Q6.2 11.95 9.05 9.1q2.85-2.85 6.725-4.525Q19.65 2.9 24 2.9q4.3 0 8.175 1.675Q36.05 6.25 38.9 9.1q2.85 2.85 4.525 6.725Q45.1 19.7 45.1 24.05q0 4.3-1.675 8.175Q41.75 36.1 38.9 38.95q-2.85 2.85-6.725 4.475Q28.3 45.05 24 45.05Zm.15-9.6q4.75 0 8.175-3.425Q35.75 28.6 35.75 23.85q0-4.75-3.425-8.175Q28.9 12.25 24.15 12.25q-4.75 0-8.175 3.425Q12.55 19.1 12.55 23.85q0 4.75 3.425 8.175Q19.4 35.45 24.15 35.45ZM20.1 25.8q-.85 0-1.425-.575-.575-.575-.575-1.375t.6-1.4q.6-.6 1.45-.6h7.75q.75 0 1.35.6.6.6.6 1.4 0 .8-.6 1.375t-1.4.575Z"/></svg>

<svg xmlns="http://www.w3.org/2000/svg" height="48" width="48"><path d="M24 45.05Q19.65 45.05 15.8 43.4Q11.95 41.75 9.075 38.9Q6.2 36.05 4.575 32.175Q2.95 28.3 2.95 24Q2.95 19.7 4.575 15.825Q6.2 11.95 9.05 9.1Q11.9 6.25 15.775 4.575Q19.65 2.9 24 2.9Q28.3 2.9 32.175 4.575Q36.05 6.25 38.9 9.1Q41.75 11.95 43.425 15.825Q45.1 19.7 45.1 24.05Q45.1 28.35 43.425 32.225Q41.75 36.1 38.9 38.95Q36.05 41.8 32.175 43.425Q28.3 45.05 24 45.05ZM24.15 35.45Q28.9 35.45 32.325 32.025Q35.75 28.6 35.75 23.85Q35.75 19.1 32.325 15.675Q28.9 12.25 24.15 12.25Q19.4 12.25 15.975 15.675Q12.55 19.1 12.55 23.85Q12.55 28.6 15.975 32.025Q19.4 35.45 24.15 35.45ZM20.1 25.8Q19.25 25.8 18.675 25.225Q18.1 24.65 18.1 23.85Q18.1 23.05 18.7 22.45Q19.3 21.85 20.15 21.85H27.9Q28.65 21.85 29.25 22.45Q29.85 23.05 29.85 23.85Q29.85 24.65 29.25 25.225Q28.65 25.8 27.85 25.8Z"/></svg>
